**kern	**kern
*staff1	*staff2
*clefG2	*clefG2
*k[b-]	*k[b-]
*M2/4	*M2/4
*F:	*F:
8g' 8b-' 8cc'	16r
.	16C'LL
8r	16E'
.	16D'JJ
8g' 8b-' 8cc'	16r
.	16C'LL
8r	16D'
.	16E'JJ
=192	=192
8f' 8a' 8cc'	16r
.	16F'LL
8r	16A'
.	16G'JJ
8f' 8a' 8cc'	16r
.	16F'LL
8r	16E'
.	16D'JJ
=193	=193
8g' 8cc' 8ee'	16r
.	16C'LL
8r	16BB'
.	16C'JJ
8g' 8cc' 8ee'	16r
.	16C'LL
8r	16D'
.	16BB-'JJ
=194	=194
8a' 8cc' 8ff'	16r
.	16AA'LL
8r	16C'
.	16BB-'JJ
8a' 8cc' 8ff'	16r
.	16AA'LL
8r	16GG'
.	16FF'JJ
=195	=195
8b-' 8cc' 8gg'	16r
.	16C'LL
8r	16E'
.	16D'JJ
8g' 8b-' 8cc'	16r
.	16C'LL
8r	16D'
.	16E'JJ
=196	=196
8f' 8a' 8cc'	16r
.	16F'LL
8r	16G'
.	16A'JJ
8f' 8a' 8ff'	16r
.	16D'LL
8r	16E'
.	16F'JJ
=197	=197
8g' 8dd' 8ff'	16r
.	16BB-'LL
8r	16AA'
.	16GG'JJ
8g' 8b-' 8ee'	16r
.	16C'LL
8r	16BB'
.	16C'JJ
=198	=198
8a' 8ff'	16r
.	16FF'LL
8r	16EE'
.	16FF'JJ
8bb-' 8eee'	16r
.	16CC'LL
8r	16BBB'
.	16CC'JJ
=199	=199
8aa' 8fff'	4r
8r	.
4r	8FFF
.	8r
==200||	==200||
*-	*-
